public/logos/SC.svg

<?xml version="1.0" encoding="UTF-8"?>
<svg xmlns="http://www.w3.org/2000/svg" xmlns:xlink="http://www.w3.org/1999/xlink" width="176pt" height="49.23pt" viewBox="0 0 176 49.23" version="1.1">
<defs>
<clipPath id="clip1">
  <path d="M 0 0 L 50 0 L 50 49.230469 L 0 49.230469 Z M 0 0 "/>
</clipPath>
</defs>
<g id="surface1">
<path style=" stroke:none;fill-rule:nonzero;fill:rgb(47.622681%,40.921021%,68.409729%);fill-opacity:1;" d="M 33.324219 39.515625 C 33.324219 39.515625 33.453125 39.371094 33.660156 39.121094 C 33.457031 39.394531 33.324219 39.515625 33.324219 39.515625 "/>
<path style=" stroke:none;fill-rule:nonzero;fill:rgb(16.247559%,16.252136%,41.461182%);fill-opacity:1;" d="M 44.578125 10.21875 C 44.152344 9.632812 43.703125 9.066406 43.230469 8.523438 C 39.460938 11.71875 35.933594 15.125 35.667969 16.886719 C 35.082031 20.761719 35.867188 28.878906 35.390625 33.515625 C 35.050781 36.808594 34.152344 38.445312 33.660156 39.121094 C 34.523438 38.078125 36.789062 35.132812 37.050781 32.585938 C 38.035156 23.023438 35.839844 19.160156 39.011719 15.355469 C 40.394531 13.691406 42.421875 11.90625 44.578125 10.21875 "/>
<path style=" stroke:none;fill-rule:nonzero;fill:rgb(47.622681%,40.921021%,68.409729%);fill-opacity:1;" d="M 26.277344 38.648438 C 26.277344 38.648438 26.394531 38.492188 26.574219 38.222656 C 26.402344 38.515625 26.277344 38.648438 26.277344 38.648438 "/>
<g clip-path="url(#clip1)" clip-rule="nonzero">
<path style=" stroke:none;fill-rule:nonzero;fill:rgb(16.247559%,16.252136%,41.461182%);fill-opacity:1;" d="M 43.636719 31.1875 C 43.636719 38.648438 35.429688 43.125 35.429688 43.125 L 10.628906 43.125 C 10.628906 43.125 20.886719 36.222656 20.886719 31.375 C 20.886719 19.066406 19.394531 22.050781 19.394531 14.40625 C 19.394531 6.761719 28.972656 0.394531 28.976562 0.390625 C 27.558594 0.140625 26.105469 0 24.613281 0 C 11.019531 0 0 11.019531 0 24.613281 C 0 38.210938 11.019531 49.230469 24.613281 49.230469 C 38.210938 49.230469 49.230469 38.210938 49.230469 24.613281 C 49.230469 22.097656 48.851562 19.667969 48.148438 17.378906 C 44.828125 17.378906 43.636719 23.730469 43.636719 31.1875 "/>
</g>
<path style=" stroke:none;fill-rule:nonzero;fill:rgb(16.247559%,16.252136%,41.461182%);fill-opacity:1;" d="M 38.773438 4.484375 C 38.082031 4 37.367188 3.546875 36.628906 3.128906 C 32.207031 7.417969 26.410156 13.480469 26.292969 15.898438 C 26.105469 19.8125 27.722656 27.804688 27.722656 32.46875 C 27.722656 35.78125 26.996094 37.5 26.574219 38.222656 C 27.328125 37.09375 29.277344 33.933594 29.277344 31.375 C 29.277344 21.757812 26.699219 18.140625 29.464844 14.03125 C 31.542969 10.9375 35.46875 7.289062 38.773438 4.484375 "/>
<path style=" stroke:none;fill-rule:nonzero;fill:rgb(15.814209%,16.40625%,40.660095%);fill-opacity:1;" d="M 55.121094 19 C 55.898438 19.605469 57.074219 20.042969 58.453125 20.042969 C 60.324219 20.042969 62.242188 18.949219 62.597656 16.957031 C 62.8125 15.738281 62.261719 14.839844 60.707031 13.890625 C 58.789062 12.769531 57.839844 11.457031 58.15625 9.683594 C 58.675781 6.761719 61.574219 4.867188 64.625 4.867188 C 66.226562 4.867188 67.34375 5.351562 67.867188 5.742188 L 66.839844 7.371094 C 66.371094 7.078125 65.425781 6.59375 64.09375 6.617188 C 62.050781 6.617188 60.582031 7.953125 60.34375 9.292969 C 60.105469 10.628906 60.808594 11.386719 62.359375 12.332031 C 64.214844 13.402344 65.117188 14.691406 64.757812 16.710938 C 64.25 19.558594 61.59375 21.769531 57.875 21.769531 C 56.203125 21.769531 54.671875 21.234375 54.085938 20.652344 L 55.121094 19 "/>
<path style=" stroke:none;fill-rule:nonzero;fill:rgb(15.814209%,16.40625%,40.660095%);fill-opacity:1;" d="M 74.003906 5.132812 L 71.421875 12.042969 L 79.050781 12.042969 L 81.609375 5.132812 L 83.679688 5.132812 L 77.585938 21.527344 L 75.542969 21.527344 L 78.390625 13.816406 L 70.761719 13.816406 L 67.910156 21.527344 L 65.867188 21.527344 L 71.960938 5.132812 L 74.003906 5.132812 "/>
<path style=" stroke:none;fill-rule:nonzero;fill:rgb(15.814209%,16.40625%,40.660095%);fill-opacity:1;" d="M 91.445312 14.742188 L 91.648438 10 C 91.703125 9.148438 91.789062 7.953125 91.890625 6.980469 L 91.839844 6.980469 C 91.226562 7.953125 90.625 8.976562 89.957031 9.972656 L 86.621094 14.742188 Z M 85.597656 16.347656 L 82.039062 21.527344 L 79.875 21.527344 L 91.382812 5.132812 L 93.792969 5.132812 L 93.164062 21.527344 L 91.074219 21.527344 L 91.332031 16.347656 L 85.597656 16.347656 "/>
<path style=" stroke:none;fill-rule:nonzero;fill:rgb(15.814209%,16.40625%,40.660095%);fill-opacity:1;" d="M 95.28125 21.527344 L 101.351562 5.132812 L 103.589844 5.132812 L 105.753906 14.425781 C 106.136719 16.273438 106.296875 17.585938 106.390625 19 L 106.445312 18.972656 C 106.808594 17.492188 107.222656 16.128906 108.046875 13.839844 L 111.269531 5.132812 L 113.214844 5.132812 L 107.121094 21.527344 L 105.101562 21.527344 L 102.988281 12.261719 C 102.535156 10.242188 102.371094 9.074219 102.277344 7.542969 L 102.199219 7.566406 C 101.753906 9.097656 101.191406 10.726562 100.375 12.964844 L 97.203125 21.527344 L 95.28125 21.527344 "/>
<path style=" stroke:none;fill-rule:nonzero;fill:rgb(15.814209%,16.40625%,40.660095%);fill-opacity:1;" d="M 113.523438 19.851562 C 114.246094 19.945312 115.027344 19.972656 115.644531 19.972656 C 118.277344 19.972656 120.335938 19.191406 121.964844 17.78125 C 123.710938 16.273438 124.894531 14.058594 125.304688 11.75 C 125.824219 8.832031 124.757812 6.664062 120.621094 6.664062 C 119.882812 6.664062 118.964844 6.714844 118.328125 6.835938 Z M 116.84375 5.351562 C 118.136719 5.132812 119.5625 5.011719 121.015625 5.011719 C 123.796875 5.011719 125.75 5.789062 126.730469 7.199219 C 127.449219 8.125 127.855469 9.585938 127.511719 11.652344 C 126.984375 14.621094 125.253906 17.5625 122.792969 19.363281 C 120.589844 20.945312 118.058594 21.625 114.882812 21.625 C 113.429688 21.625 111.941406 21.550781 110.882812 21.429688 L 116.84375 5.351562 "/>
<path style=" stroke:none;fill-rule:nonzero;fill:rgb(15.814209%,16.40625%,40.660095%);fill-opacity:1;" d="M 134.226562 8.222656 C 132.347656 9.804688 130.898438 12.675781 130.492188 14.960938 C 130.015625 17.636719 130.785156 20.09375 134.035156 20.09375 C 135.4375 20.09375 136.898438 19.484375 138.113281 18.464844 C 139.941406 16.90625 141.378906 13.964844 141.785156 11.675781 C 142.199219 9.339844 141.929688 6.570312 138.3125 6.570312 C 136.835938 6.570312 135.417969 7.199219 134.226562 8.222656 Z M 143.941406 11.578125 C 143.4375 14.425781 141.84375 17.5625 139.527344 19.507812 C 137.796875 20.945312 135.726562 21.796875 133.4375 21.796875 C 129.152344 21.796875 127.703125 18.609375 128.320312 15.128906 C 128.835938 12.234375 130.558594 9.050781 132.929688 7.078125 C 134.574219 5.71875 136.792969 4.867188 138.886719 4.867188 C 143.339844 4.867188 144.566406 8.078125 143.941406 11.578125 "/>
<path style=" stroke:none;fill-rule:nonzero;fill:rgb(15.814209%,16.40625%,40.660095%);fill-opacity:1;" d="M 143.207031 21.527344 L 149.273438 5.132812 L 151.515625 5.132812 L 153.675781 14.425781 C 154.0625 16.273438 154.222656 17.585938 154.3125 19 L 154.367188 18.972656 C 154.730469 17.492188 155.144531 16.128906 155.96875 13.839844 L 159.195312 5.132812 L 161.136719 5.132812 L 155.046875 21.527344 L 153.027344 21.527344 L 150.910156 12.261719 C 150.457031 10.242188 150.296875 9.074219 150.199219 7.542969 L 150.121094 7.566406 C 149.675781 9.097656 149.117188 10.726562 148.300781 12.964844 L 145.125 21.527344 L 143.207031 21.527344 "/>
<path style=" stroke:none;fill-rule:nonzero;fill:rgb(15.814209%,16.40625%,40.660095%);fill-opacity:1;" d="M 171.097656 20.824219 C 170.066406 21.210938 168.207031 21.699219 166.265625 21.699219 C 163.925781 21.699219 162.222656 21.042969 161.210938 19.65625 C 160.203125 18.269531 160.101562 16.492188 160.390625 14.863281 C 160.875 12.140625 162.492188 9.292969 164.96875 7.394531 C 167.015625 5.863281 169.5625 4.964844 172.222656 4.964844 C 174.265625 4.964844 175.558594 5.425781 176 5.71875 L 175.03125 7.421875 C 174.246094 7.007812 173.164062 6.714844 171.664062 6.714844 C 169.695312 6.714844 167.769531 7.421875 166.164062 8.710938 C 164.355469 10.144531 163.007812 12.480469 162.609375 14.71875 C 162.046875 17.878906 163.273438 19.972656 166.964844 19.972656 C 167.949219 19.972656 168.921875 19.777344 169.582031 19.507812 L 171.386719 14.621094 L 168.015625 14.621094 L 168.628906 12.964844 L 173.996094 12.964844 L 171.097656 20.824219 "/>
<path style=" stroke:none;fill-rule:nonzero;fill:rgb(15.814209%,16.40625%,40.660095%);fill-opacity:1;" d="M 64.363281 35.746094 L 64.570312 31.003906 C 64.621094 30.152344 64.710938 28.960938 64.8125 27.988281 L 64.761719 27.988281 C 64.144531 28.960938 63.546875 29.980469 62.875 30.980469 L 59.539062 35.746094 Z M 58.515625 37.351562 L 54.960938 42.535156 L 52.792969 42.535156 L 64.304688 26.140625 L 66.714844 26.140625 L 66.085938 42.535156 L 63.992188 42.535156 L 64.253906 37.351562 L 58.515625 37.351562 "/>
<path style=" stroke:none;fill-rule:nonzero;fill:rgb(15.814209%,16.40625%,40.660095%);fill-opacity:1;" d="M 76.289062 26.140625 L 70.222656 42.535156 L 68.179688 42.535156 L 74.246094 26.140625 L 76.289062 26.140625 "/>
<path style=" stroke:none;fill-rule:nonzero;fill:rgb(15.814209%,16.40625%,40.660095%);fill-opacity:1;" d="M 79.203125 33.824219 L 81.027344 33.824219 C 83.609375 33.824219 85.582031 32.148438 85.933594 30.175781 C 86.246094 28.425781 85.054688 27.648438 83.183594 27.648438 C 82.371094 27.648438 81.816406 27.71875 81.429688 27.816406 Z M 79.9375 26.382812 C 80.988281 26.164062 82.390625 26.015625 83.621094 26.015625 C 85.269531 26.015625 86.628906 26.40625 87.371094 27.210938 C 88.019531 27.867188 88.316406 28.816406 88.117188 29.933594 C 87.695312 32.316406 85.53125 34.09375 83.335938 34.675781 L 83.300781 34.726562 C 84.390625 35.113281 84.738281 36.332031 84.558594 38.035156 C 84.324219 40.320312 84.171875 41.875 84.277344 42.535156 L 82.160156 42.535156 C 82.121094 42.191406 82.257812 40.464844 82.46875 38.570312 C 82.746094 36.332031 82.078125 35.382812 80.429688 35.382812 L 78.609375 35.382812 L 75.980469 42.535156 L 73.9375 42.535156 L 79.9375 26.382812 "/>
<path style=" stroke:none;fill-rule:nonzero;fill:rgb(15.814209%,16.40625%,40.660095%);fill-opacity:1;" d="M 92.878906 26.140625 L 94.921875 26.140625 L 89.484375 40.78125 L 96.179688 40.78125 L 95.523438 42.535156 L 86.8125 42.535156 L 92.878906 26.140625 "/>
<path style=" stroke:none;fill-rule:nonzero;fill:rgb(15.814209%,16.40625%,40.660095%);fill-opacity:1;" d="M 105.777344 26.140625 L 99.710938 42.535156 L 97.664062 42.535156 L 103.734375 26.140625 L 105.777344 26.140625 "/>
<path style=" stroke:none;fill-rule:nonzero;fill:rgb(15.814209%,16.40625%,40.660095%);fill-opacity:1;" d="M 103.425781 42.535156 L 109.492188 26.140625 L 111.734375 26.140625 L 113.894531 35.429688 C 114.28125 37.28125 114.441406 38.59375 114.53125 40.003906 L 114.585938 39.980469 C 114.949219 38.496094 115.363281 37.132812 116.1875 34.847656 L 119.414062 26.140625 L 121.359375 26.140625 L 115.265625 42.535156 L 113.246094 42.535156 L 111.128906 33.265625 C 110.675781 31.246094 110.515625 30.078125 110.417969 28.546875 L 110.339844 28.570312 C 109.894531 30.105469 109.335938 31.734375 108.519531 33.972656 L 105.34375 42.535156 L 103.425781 42.535156 "/>
<path style=" stroke:none;fill-rule:nonzero;fill:rgb(15.814209%,16.40625%,40.660095%);fill-opacity:1;" d="M 129.902344 34.824219 L 123.871094 34.824219 L 121.675781 40.804688 L 128.46875 40.804688 L 127.816406 42.535156 L 118.980469 42.535156 L 125.050781 26.140625 L 133.515625 26.140625 L 132.863281 27.867188 L 126.464844 27.867188 L 124.519531 33.121094 L 130.550781 33.121094 L 129.902344 34.824219 "/>
<path style=" stroke:none;fill-rule:nonzero;fill:rgb(15.814209%,16.40625%,40.660095%);fill-opacity:1;" d="M 131.269531 40.003906 C 132.046875 40.613281 133.226562 41.050781 134.605469 41.050781 C 136.476562 41.050781 138.394531 39.957031 138.746094 37.960938 C 138.964844 36.746094 138.410156 35.84375 136.855469 34.894531 C 134.9375 33.777344 133.992188 32.464844 134.308594 30.6875 C 134.828125 27.769531 137.722656 25.871094 140.777344 25.871094 C 142.375 25.871094 143.496094 26.359375 144.015625 26.746094 L 142.988281 28.375 C 142.523438 28.085938 141.574219 27.597656 140.242188 27.621094 C 138.199219 27.621094 136.730469 28.960938 136.492188 30.296875 C 136.253906 31.636719 136.957031 32.390625 138.511719 33.339844 C 140.363281 34.410156 141.265625 35.699219 140.90625 37.71875 C 140.402344 40.5625 137.742188 42.777344 134.027344 42.777344 C 132.351562 42.777344 130.824219 42.242188 130.238281 41.65625 L 131.269531 40.003906 "/>
</g>
</svg>

<svg xmlns="http://www.w3.org/2000/svg" width="176pt" height="65.64" viewBox="0 0 176 49.23"><defs><clipPath id="a"><path d="M0 0h50v49.23H0Zm0 0"/></clipPath></defs><path d="M33.324 39.516s.13-.145.336-.395c-.203.274-.336.395-.336.395" style="stroke:none;fill-rule:nonzero;fill:#7968ae;fill-opacity:1"/><path d="M44.578 10.219a25 25 0 0 0-1.348-1.696c-3.77 3.196-7.296 6.602-7.562 8.364-.586 3.875.2 11.992-.277 16.629-.34 3.293-1.239 4.93-1.73 5.605.862-1.043 3.128-3.988 3.39-6.535.984-9.563-1.211-13.426 1.96-17.23 1.384-1.665 3.41-3.45 5.567-5.137" style="stroke:none;fill-rule:nonzero;fill:#29296a;fill-opacity:1"/><path d="M26.277 38.648s.118-.156.297-.425c-.172.293-.297.425-.297.425" style="stroke:none;fill-rule:nonzero;fill:#7968ae;fill-opacity:1"/><g clip-path="url(#a)"><path d="M43.637 31.188c0 7.46-8.207 11.937-8.207 11.937H10.629s10.258-6.902 10.258-11.75c0-12.309-1.492-9.324-1.492-16.969 0-7.644 9.578-14.011 9.582-14.015A25 25 0 0 0 24.613 0C11.02 0 0 11.02 0 24.613 0 38.211 11.02 49.23 24.613 49.23c13.598 0 24.617-11.02 24.617-24.617 0-2.515-.378-4.945-1.082-7.234-3.32 0-4.511 6.351-4.511 13.808" style="stroke:none;fill-rule:nonzero;fill:#29296a;fill-opacity:1"/></g><path d="M38.773 4.484A26 26 0 0 0 36.63 3.13C32.207 7.418 26.41 13.48 26.293 15.899c-.188 3.914 1.43 11.906 1.43 16.57 0 3.312-.727 5.031-1.149 5.754.754-1.13 2.703-4.29 2.703-6.848 0-9.617-2.578-13.234.188-17.344 2.078-3.094 6.004-6.742 9.308-9.547" style="stroke:none;fill-rule:nonzero;fill:#29296a;fill-opacity:1"/><path d="M55.121 19c.777.605 1.953 1.043 3.332 1.043 1.871 0 3.79-1.094 4.145-3.086.215-1.219-.336-2.117-1.891-3.066-1.918-1.121-2.867-2.434-2.55-4.207.519-2.922 3.417-4.817 6.468-4.817 1.602 0 2.719.485 3.242.875l-1.027 1.63a4.98 4.98 0 0 0-2.746-.755c-2.043 0-3.512 1.336-3.75 2.676-.239 1.336.465 2.094 2.015 3.039 1.856 1.07 2.758 2.36 2.399 4.379-.508 2.848-3.164 5.059-6.883 5.059-1.672 0-3.203-.536-3.79-1.118zM74.004 5.133l-2.582 6.91h7.629l2.558-6.91h2.07l-6.093 16.394h-2.043l2.848-7.71h-7.63l-2.85 7.71h-2.044l6.094-16.394zM91.445 14.742 91.648 10c.055-.852.141-2.047.243-3.02h-.051c-.613.973-1.215 1.997-1.883 2.993l-3.336 4.77Zm-5.847 1.606-3.559 5.18h-2.164L91.383 5.132h2.41l-.629 16.394h-2.09l.258-5.18zM95.281 21.527l6.07-16.394h2.239l2.164 9.293c.383 1.847.543 3.16.637 4.574l.054-.027c.364-1.48.778-2.844 1.602-5.133l3.223-8.707h1.945l-6.094 16.394h-2.02l-2.113-9.265c-.453-2.02-.617-3.188-.71-4.719l-.079.023c-.445 1.532-1.008 3.16-1.824 5.399l-3.172 8.562zM113.523 19.852c.723.093 1.504.12 2.122.12 2.632 0 4.69-.78 6.32-2.19 1.746-1.509 2.93-3.723 3.34-6.032.52-2.918-.547-5.086-4.684-5.086-.738 0-1.656.05-2.293.172Zm3.32-14.5a25.3 25.3 0 0 1 4.173-.34c2.78 0 4.734.777 5.714 2.187.72.926 1.125 2.387.782 4.453-.528 2.97-2.258 5.91-4.719 7.711-2.203 1.582-4.734 2.262-7.91 2.262-1.453 0-2.942-.074-4-.195zM134.227 8.223c-1.88 1.582-3.329 4.453-3.735 6.738-.476 2.676.293 5.133 3.543 5.133 1.403 0 2.863-.61 4.078-1.63 1.828-1.558 3.266-4.5 3.672-6.788.414-2.336.145-5.106-3.472-5.106-1.477 0-2.895.63-4.086 1.653m9.714 3.355c-.504 2.848-2.097 5.985-4.414 7.93-1.73 1.437-3.8 2.289-6.09 2.289-4.285 0-5.734-3.188-5.117-6.668.516-2.895 2.239-6.078 4.61-8.05 1.644-1.36 3.863-2.212 5.957-2.212 4.453 0 5.68 3.211 5.054 6.711M143.207 21.527l6.066-16.394h2.243l2.16 9.293c.387 1.847.547 3.16.637 4.574l.054-.027c.363-1.48.778-2.844 1.602-5.133l3.226-8.707h1.942l-6.09 16.394h-2.02l-2.117-9.265c-.453-2.02-.613-3.188-.71-4.719l-.079.023c-.445 1.532-1.004 3.16-1.82 5.399l-3.176 8.562zM171.098 20.824c-1.032.387-2.891.875-4.832.875-2.34 0-4.043-.656-5.055-2.043-1.008-1.386-1.11-3.164-.82-4.793.484-2.722 2.101-5.57 4.578-7.468a12.15 12.15 0 0 1 7.254-2.43c2.043 0 3.336.46 3.777.754l-.969 1.703c-.785-.414-1.867-.707-3.367-.707-1.969 0-3.894.707-5.5 1.996-1.809 1.434-3.156 3.77-3.555 6.008-.562 3.16.664 5.254 4.356 5.254.984 0 1.957-.196 2.617-.465l1.805-4.887h-3.371l.613-1.656h5.367zM64.363 35.746l.207-4.742c.051-.852.14-2.043.243-3.016h-.051c-.617.973-1.215 1.992-1.887 2.992l-3.336 4.766Zm-5.847 1.606-3.555 5.183h-2.168l11.512-16.394h2.41l-.63 16.394h-2.093l.262-5.183zM76.29 26.14l-6.067 16.395H68.18l6.066-16.394zM79.203 33.824h1.824c2.582 0 4.555-1.676 4.907-3.648.312-1.75-.88-2.528-2.75-2.528-.813 0-1.368.07-1.754.168Zm.734-7.441a19.4 19.4 0 0 1 3.684-.367c1.649 0 3.008.39 3.75 1.195.649.656.945 1.605.746 2.723-.422 2.382-2.586 4.16-4.781 4.742l-.035.05c1.09.387 1.437 1.606 1.258 3.31-.235 2.284-.387 3.839-.282 4.5H82.16c-.039-.345.098-2.071.309-3.966.277-2.238-.39-3.187-2.04-3.187h-1.82l-2.629 7.152h-2.043zM92.879 26.14h2.043l-5.438 14.641h6.696l-.657 1.754h-8.71zM105.777 26.14l-6.066 16.395h-2.047l6.07-16.394zM103.426 42.535l6.066-16.394h2.242l2.16 9.289c.387 1.851.547 3.164.637 4.574l.055-.024c.363-1.484.777-2.847 1.602-5.132l3.226-8.707h1.945l-6.093 16.394h-2.02l-2.117-9.27c-.453-2.019-.613-3.187-.711-4.718l-.078.023c-.445 1.535-1.004 3.164-1.82 5.403l-3.176 8.562zM129.902 34.824h-6.03l-2.196 5.98h6.793l-.653 1.731h-8.836l6.07-16.394h8.466l-.653 1.726h-6.398l-1.945 5.254h6.03zM131.27 40.004c.777.61 1.957 1.047 3.335 1.047 1.872 0 3.79-1.094 4.141-3.09.219-1.215-.336-2.117-1.89-3.066-1.918-1.118-2.864-2.43-2.547-4.208.52-2.917 3.414-4.816 6.468-4.816 1.598 0 2.72.488 3.239.875l-1.028 1.629a5 5 0 0 0-2.746-.754c-2.043 0-3.512 1.34-3.75 2.676-.238 1.34.465 2.094 2.02 3.043 1.851 1.07 2.754 2.36 2.394 4.379-.504 2.843-3.164 5.058-6.879 5.058-1.675 0-3.203-.535-3.789-1.12z" style="stroke:none;fill-rule:nonzero;fill:#282a68;fill-opacity:1"/></svg>
